X: 30683
T: Orange And Blue, The
R: strathspey
M: 4/4
K: Gmajor
d>c|B<G G2 D<G G2|B>c (3dcB G2 A>G|F<D D2 [A,/A/]D3/2 D2|F>G (3AGF D2 d>c|
B<G G2 D<G G2|B>cd>B G2 c>d|e>cd>B c>AB<G|F>A (3DEF G2||
d>c|B<d d2 B<dd>c|B>c (3dcB G2 A>G|F<A A2 F<AA>G|F<DA>F D2 d>c|
B<d d2 B<dd>c|B>cd>B G2 c>d|e>cd>B c>AB<G|A>F (3DEF G2||

